public/icons/cart1-icon3-mobile.svg

<svg width="26" height="30" viewBox="0 0 26 30" fill="none" xmlns="http://www.w3.org/2000/svg">
<path fill-rule="evenodd" clip-rule="evenodd" d="M8.08947 19.7469C8.58027 20.0309 9.06038 20.4096 9.54831 20.7944C10.6003 21.6242 11.6887 22.4826 12.9991 22.4826C14.3096 22.4826 15.398 21.6242 16.4501 20.7944C16.938 20.4096 17.4181 20.0309 17.9089 19.7469C18.4222 19.4499 19.0083 19.2111 19.5982 18.9707C20.8448 18.4627 22.1081 17.948 22.7358 16.8631C23.3413 15.8165 23.1663 14.4934 22.9891 13.1535C22.904 12.5103 22.8185 11.8633 22.8185 11.2411C22.8185 10.6189 22.904 9.97191 22.9891 9.32875C23.1663 7.9889 23.3413 6.66583 22.7358 5.61918C22.108 4.53443 20.8448 4.01967 19.5981 3.51169C19.0083 3.27133 18.4221 3.03248 17.9088 2.73549C17.418 2.45154 16.9379 2.07288 16.4499 1.68805L16.4499 1.68804C15.3979 0.858373 14.3096 0 12.9991 0C11.6886 0 10.6002 0.858484 9.54816 1.68826C9.06028 2.07308 8.58022 2.45172 8.08947 2.73569C7.57626 3.03257 6.99025 3.27134 6.40051 3.51164C5.15378 4.01964 3.89035 4.53444 3.2627 5.61929C2.65708 6.66593 2.8321 7.98899 3.00934 9.32884C3.09442 9.972 3.18001 10.619 3.18001 11.2412C3.18001 11.8634 3.09441 12.5105 3.00933 13.1537C2.83209 14.4935 2.65706 15.8166 3.26259 16.8632C3.89031 17.9481 5.15367 18.4629 6.40037 18.9709C6.99016 19.2112 7.57621 19.45 8.08947 19.7469ZM12.9991 3.15308C17.459 3.15308 21.0875 6.78144 21.0875 11.2412C21.0875 15.7011 17.459 19.3295 12.9991 19.3295C8.53936 19.3295 4.911 15.7011 4.911 11.2412C4.911 6.78144 8.53936 3.15308 12.9991 3.15308ZM21.2107 19.9419L24.9971 26.8312C25.2661 27.3208 25.0363 27.6412 24.4864 27.5433L22.751 27.2342C22.2011 27.1362 21.5816 27.4807 21.3746 27.9996L20.7381 29.5943C20.5311 30.1133 20.1414 30.1373 19.8724 29.6477L16.1669 22.9052C16.6095 22.6085 17.0169 22.2876 17.3935 21.9906C17.8472 21.6329 18.2757 21.2949 18.6719 21.0657C19.0943 20.8214 19.6183 20.6077 20.173 20.3817C20.5122 20.2436 20.8622 20.1006 21.2107 19.9419ZM5.82528 20.3821C6.38 20.6081 6.90404 20.8217 7.3264 21.066C7.72245 21.2953 8.15091 21.6331 8.60466 21.9911C8.98131 22.2882 9.38874 22.6091 9.83141 22.9058L6.12595 29.6481C5.85698 30.1377 5.46732 30.1137 5.26031 29.5948L4.62382 28C4.41681 27.4812 3.79728 27.1367 3.24734 27.2347L1.51198 27.5438C0.962042 27.6417 0.732273 27.3212 1.00125 26.8316L4.78756 19.9424C5.13608 20.1009 5.48612 20.244 5.82528 20.3821ZM19.5638 11.2412C19.5638 14.8612 16.6191 17.8059 12.9992 17.8059C9.37943 17.8059 6.43469 14.8612 6.43469 11.2412C6.43469 7.6217 9.37943 4.67676 12.9992 4.67676C16.6191 4.67676 19.5638 7.6217 19.5638 11.2412Z" fill="url(#paint0_linear_1098_3645)"/>
<defs>
<linearGradient id="paint0_linear_1098_3645" x1="16.1423" y1="4.67701" x2="14.3909" y2="23.2541" gradientUnits="userSpaceOnUse">
<stop stop-color="#B300BE"/>
<stop offset="1" stop-color="#11D9EB"/>
</linearGradient>
</defs>
</svg>

<svg width="26" height="30" fill="none" xmlns="http://www.w3.org/2000/svg"><path fill-rule="evenodd" clip-rule="evenodd" d="M8.09 19.747c.49.284.97.663 1.458 1.047 1.052.83 2.14 1.689 3.451 1.689 1.31 0 2.399-.859 3.451-1.689.488-.384.968-.763 1.459-1.047.513-.297 1.1-.536 1.69-.776 1.246-.508 2.51-1.023 3.137-2.108.605-1.046.43-2.37.253-3.71-.085-.643-.17-1.29-.17-1.912 0-.622.085-1.27.17-1.912.177-1.34.352-2.663-.253-3.71-.628-1.085-1.891-1.6-3.138-2.107-.59-.24-1.176-.48-1.69-.777-.49-.283-.97-.662-1.458-1.047C15.398.858 14.31 0 13 0c-1.311 0-2.4.858-3.452 1.688-.488.385-.968.764-1.459 1.048-.513.297-1.099.535-1.688.776-1.247.508-2.51 1.022-3.138 2.107-.606 1.047-.43 2.37-.254 3.71.085.643.171 1.29.171 1.912 0 .622-.086 1.27-.17 1.913-.178 1.34-.353 2.663.253 3.71.627 1.084 1.89 1.599 3.137 2.107.59.24 1.176.479 1.69.776zM13 3.153c4.459 0 8.087 3.628 8.087 8.088 0 4.46-3.628 8.088-8.088 8.088-4.46 0-8.088-3.628-8.088-8.088 0-4.46 3.628-8.088 8.088-8.088zm8.21 16.789 3.787 6.89c.27.489.04.81-.51.711l-1.736-.309c-.55-.098-1.17.247-1.376.766l-.637 1.594c-.207.52-.597.543-.866.054l-3.705-6.743c.442-.297.85-.617 1.226-.914.454-.358.883-.696 1.279-.925.422-.245.946-.458 1.501-.684.34-.138.69-.281 1.038-.44zm-15.385.44c.555.226 1.079.44 1.501.684.396.23.825.567 1.279.925.376.297.784.618 1.226.915l-3.705 6.742c-.269.49-.659.466-.866-.053L4.624 28c-.207-.519-.827-.863-1.377-.765l-1.735.309c-.55.098-.78-.223-.51-.712l3.786-6.89c.348.159.698.302 1.037.44zm13.739-9.14a6.572 6.572 0 0 1-6.565 6.564 6.572 6.572 0 0 1-6.564-6.565 6.572 6.572 0 0 1 6.564-6.564 6.572 6.572 0 0 1 6.565 6.564z" fill="url(#a)"/><defs><linearGradient id="a" x1="16.142" y1="4.677" x2="14.391" y2="23.254" gradientUnits="userSpaceOnUse"><stop stop-color="#B300BE"/><stop offset="1" stop-color="#11D9EB"/></linearGradient></defs></svg>
